src/lib/packages/icons/src/assets/filled/chat-dots-minus.svg

<svg width="24" height="24" viewBox="0 0 24 24" fill="none" xmlns="http://www.w3.org/2000/svg">
<path d="M10.6211 3.10301C7.32013 3.59401 4.50113 5.96401 3.46513 9.13701C2.69813 11.486 2.93502 13.823 3.83402 15.757C4.04402 16.197 4.04408 16.707 3.89408 17.177L3.054 19.676C2.79 20.461 3.53902 21.21 4.32402 20.946L6.82402 20.106C7.29401 19.956 7.80394 19.956 8.24394 20.166C9.38394 20.696 10.663 20.996 12.003 20.996C12.506 20.996 13.002 20.957 13.481 20.878C13.659 20.849 13.76 20.667 13.71 20.494C13.544 19.908 13.472 19.283 13.514 18.63C13.69 15.93 15.9341 13.685 18.6351 13.509C19.2881 13.467 19.9121 13.539 20.4991 13.705C20.6721 13.754 20.8531 13.653 20.8831 13.476C20.9621 12.997 21.001 12.501 21.001 11.998C21 6.57597 16.2021 2.27301 10.6211 3.10301ZM8.02006 13C7.46806 13 7.01493 12.552 7.01493 12C7.01493 11.448 7.45805 11 8.01005 11H8.02006C8.57306 11 9.02006 11.448 9.02006 12C9.02006 12.552 8.57206 13 8.02006 13ZM12.0201 13C11.4681 13 11.0149 12.552 11.0149 12C11.0149 11.448 11.4581 11 12.0101 11H12.0201C12.5731 11 13.0201 11.448 13.0201 12C13.0201 12.552 12.5721 13 12.0201 13ZM16.0201 13C15.4681 13 15.0149 12.552 15.0149 12C15.0149 11.448 15.4581 11 16.0101 11H16.0201C16.5731 11 17.0201 11.448 17.0201 12C17.0201 12.552 16.5721 13 16.0201 13ZM21 18.75H16C15.586 18.75 15.25 18.414 15.25 18C15.25 17.586 15.586 17.25 16 17.25H21C21.414 17.25 21.75 17.586 21.75 18C21.75 18.414 21.414 18.75 21 18.75Z" fill="currentColor"/>
</svg>

<svg xmlns="http://www.w3.org/2000/svg" width="24" height="24" fill="none"><path fill="currentColor" d="M10.621 3.103c-3.3.491-6.12 2.861-7.156 6.034-.767 2.349-.53 4.686.369 6.62.21.44.21.95.06 1.42l-.84 2.499a1.003 1.003 0 0 0 1.27 1.27l2.5-.84c.47-.15.98-.15 1.42.06 1.14.53 2.419.83 3.759.83a9.1 9.1 0 0 0 1.478-.118c.178-.029.279-.211.229-.384a5.514 5.514 0 0 1-.196-1.864c.176-2.7 2.42-4.945 5.121-5.121a5.516 5.516 0 0 1 1.864.196c.173.049.354-.052.384-.229a9.1 9.1 0 0 0 .118-1.478C21 6.576 16.202 2.273 10.621 3.103ZM8.021 13a1.005 1.005 0 0 1-1.006-1c0-.552.443-1 .995-1h.01a1 1 0 1 1 0 2Zm4 0a1.005 1.005 0 0 1-1.006-1c0-.552.443-1 .995-1h.01a1 1 0 1 1 0 2Zm4 0a1.005 1.005 0 0 1-1.006-1c0-.552.443-1 .995-1h.01a1 1 0 1 1 0 2ZM21 18.75h-5a.75.75 0 0 1 0-1.5h5a.75.75 0 0 1 0 1.5Z"/></svg>
